X:79 
T:Peggy Bawne Jig 
B:OFPC4.145
C:file ID: ofpc.4/079pbj
N:I added 2nd ending.
Q:160
M:6/8
L:1/8
R:jig
K:G
B/A/|: G2G BAB|BAB BAB|G2G BAB|d2B ABc|
G2G BAB|BAB BAB|gfe dcB|ABA ABc :|
g2g gec|B2d dBG|g2g gec|B2c def|
gag fdd|ece def|gfe dcB|1ABA ABc :|\
[2 A2B cAF|G6|]

